X:131
T:Look Down, O Lord, From Heaven Behold
%%stretchlast false
M:4/4
L:1/4
K:Eb clef=C1
"^V/ii"[C=Ecg] "^ii"[Fca] "^V/ii¹"[=EGcg] "^ii"[FAcf] | "^V/ii"[CG=ec'] "^ii"[FAfc'] [F,cfa] "^VI"[Cc=eg] | "^v"[B,_dfb] "^ii"[Fcfa] "^VI"[Cc=eg] "^♭VII"[_DAf] | "^v"[B,_dfb] "^ii²"[Ccfa] "^VI"[Cc=eg] "^♯iii"[F,Af] | "^ii"[C=Ecf] [Fca] "^V/ii¹"[=EGcg] "^ii"[FAcf] | "^V/ii"[CG=ec'] "^ii"[FAfc'] [F,cfa] "^VI"[Cc=eg] | "^v"[B,_dfb] "^ii"[Fcfa] "^VI"[Cc=eg] "^♭VII"[_DAf] | "^v"[B,_dfb] "^ii²"[Ccfa] "^VI"[Cc=eg] "^♯iii"[F,Af] | "^V"[B,Bdf] "^I"[EGBg] "^vi"[CGce] "^iii"[G,GBd] | "^IV"[A,EAc] "^vi"[CEGe] "^ii¹"[A,Ccf] "^V/vi"[G,D=Bg] | "^vi"[CEGe] "^V"[B,DBf] "^IV"[A,Eca] "^I"[E,EBg] | "^IV"[A,Eca] "^♭VII"[_DFAf]/ "^v¹"[_DFBf]/ "^V/ii"[CGc=e] "^ii"[F,Acf] | [FAcf] "^V/ii¹"[=EGcc'] "^ii"[FAca] "^I"[EGeb] | "^IV"[A,Aec'] "^I"[EGeb] "^ii"[Fca] "^VI"[C=Ecg] |]
